X:1
T:Alexander's Band Is Back In Dixieland
T:ALEXANDER'S BAND IS BACK IN DIXIELAND
T:SONG
T:Music by ALBERT GUMBLE 
T:      Lyric by JACK YELLEN 
T:Copyright MCMXIX by JEROME H. REMICK &amp; CO., Detroit &amp; New York
T:Copyright MCMXIX by JEROME H. REMICK &amp; CO., Detroit &amp; New York
T:Copyright MCMXIX by JEROME H. REMICK &amp; CO., Detroit &amp; New York
C:Albert Gumble
Z:Jack Yellen
Z:Copyright MCMXIX by JEROME H. REMICK & CO., Detroit & New York
%%score 1 { ( 2 3 ) | ( 4 5 ) }
L:1/8
Q:1/4=114
M:2/2
K:Eb
V:1 treble nm="Voice"
V:2 treble nm="Piano"
V:3 treble 
V:4 bass 
V:5 bass 
V:1
"^Moderato" z2 | z8 | z8 | z8 | z8 |:S z8 | z8 :|"^VOICE" e2 d2 c2 d2 | c _c2 B- B4 | e2 d2 c2 d2 | %10
w: |||||||Where's that mus- sic|com- in' from _|Lis- ten to that|
w: |||||||Now we'll have some|har- mo- nies _|Float- in' on the|
 c _c2 B- B4 | B c B G F E3 | e f e c B A3 | B2 B2 c d2 B- | B8 | e2 d2 c2 d2 | c _c2 B- B4 | %17
w: rum- tum- tum _|Come a lit- tle near- er|Now it's get- tin' clear- er|Ain't they play- in' some|_|That's what I call|mu- sic sweet _|
w: eve- nin' breeze _|When the steam- boat lead- ers|And the cot- ton tot- ers|Start their ju- bi- lees|_|I'll be down to|ev- 'ry one _|
 =c B c B c B3 | e8 | d ^c d =A =c B3 | c =B c G _B !courtesy!_A3 | G2 F2 d F2 B- | B6 z2 |: %23
w: Puts the tick- le in your|feet|I know from the me- tre|There's a cer- tain lead- er|Com- in' down the street|_|
w: Just as quick as I can|run|With my lov- in' ba- by|Let me tell you may- be|I won't have some fun|_|
"^CHORUS" G2 B2 d2 c2 | G B2 d- d2 c2 | =A2 c2 e2 d2 | =B c2 e- e2 c2 | d2 F2 A2 c2 | %28
w: Here comes Rag- time|Al- ex- an- * der|Dix- ie's fa- mous|band com- mand- * er|No more wor- ry|
w: |||||
 e c2 d- d2 c d | e f e c B c B G | ^F G2 B- B4 | G2 B2 d2 c2 | G B2 d- d2 c2 | =A2 c2 e2 d2 | %34
w: no more blues _ Ev- 'ry-|bo- dy run a- long and get your|danc- in' shoes _|When it comes to|syn- co- pat- * tion|That's the best band|
w: ||||||
 =B c2 e- e2 c2 |!<(! =B2 c2 d2 e2!<)! | f2 z2 z2 e c | B2 =B2 c2 ^c2 | !^!d2 z2 z2 B =B | %39
w: in cre- a- * tion|Oh boy what a|time 'Cross the|Ma- son Dix- on|line Al- ex|
w: |||||
 c2 =B2 c2 ^c2 | d2 ^c2 d B3 |1 e2 z2 z4 | z8 :|2 e8- | e2 z2 z4!D.S.! |] %45
w: \-an- der's Band is|back in Dix- ie-|land||\-land|_|
w: ||||||
"^PATTER CHORUS""^Listesso tempo" G3/2 ^F/ G3/2 A/ B G3 | z8 | G3/2 F/ G3/2 A/ B4 | %48
w: Hear the clar- i- net- er||Lord- y! Can't he blow|
w: |||
 z2 !^!G2 !^!=F4 | G3/2 F/ G3/2 A/ B G3 | z4 z2 z B | c3/2 =B/ c3/2 d/ e _B2 A | G E F E- E4 | %53
w: Yea bo!|Lis- ten to the fid- dler|I|wish I was the fid- dler and|he was my bow _|
w: |||||
 G3/2 ^F/ G3/2 A/ B G3 | z8 | c2 _c2 B4 | z2 G2 F4 | G3/2 ^F/ G3/2 A/ B G3 | z8 | %59
w: Who is that a moan- in'||That's trom- bone|Some groan|Here's the lit- tle drum- mer||
w: ||Sax- o- phone||||
 c3/2 =B/ c3/2 d/ e3/2 _B/ c3/2 A/ | G F2 E- E2 z2 ||!<(! =B2 c2 d2 e2!<)! | !^!f2 z2 z2 e c | %63
w: That's the boy that's gon- na make me|leave my home _|Oh boy what a|time 'Cross the|
w: ||||
!<(! B2 =B2 c2 ^c2!<)! | !^!d2 z2 z2 B =B | c2 =B2 c2 ^c2 | d2 ^c2 d B3 | e8- | e2 z2 z2 |] %69
w: Mas- on Dix- on|line Al- ex-|an- der's band is|back in Dix- ie-|land|_|
w: ||||||
V:2
!f! B=B | [_E=Ac]2 [EA=B]2 [EAc]2 [EA^c]2 | [F_Ad]2 [FA^c]2 [FAd] [DFAB]3 | %3
 [Ge]GA=A B !>![^Fc]2 B | [Ge]2 !>![D=FAB]2 !>![EGBe]2 z2 |: %5
"^Vamp" [EGBe]2 [EGBd]2 [E=Ac]2 [EAd]2 | [D_Ac] [DA_c]2 [DAB]- [DAB]=B=cd :| %7
!p! [EG_Be]2 [EGBd]2 [E=Ac]2 [EAd]2 | [D_Ac] [DA_c]2 [DAB]- [DAB]=B=cd | %9
 [EG_Be]2 [EGBd]2 [E=Ac]2 [EAd]2 | [D_Ac] [DA_c]2 [DAB]- [DAB]AGF | [EB]c[EB]G F E3 | %12
 [G_de]f[Ge]c B A3 | [EGB]2 [EGB]2 [D^Fc] [DFd]2 [EGB]- | [GB-]4 [AB]4 | %15
 [EGBe]2 [EGBd]2 [E=Ac]2 [EAd]2 | [D_Ac] [DA_c]2 [DAB]- [DAB]4 | =cBcB [EGc] [EGB]3 | [Ee]8 | %19
 d^cd=A [DA=c] [DGB]3 | c=BcG [CG_B] [CF!courtesy!_A]3 | [=A,_EG]2 [EF]2 [Fd] [EF]2 [DB]- | %22
 B6 z2 |:!p!!f! [EG]2 [EGB]2 [D^Fd]2 [DFc]2 | [EG] [EGB]2 [=EGd]- [EGd]2 [EGc]2 | %25
 [CF=A]2 [_EFc]2 [GAe]2 [FAd]2 | [E=A=B] [EAc]2 [GAe]- [GAe]2 [EAc]2 | %27
 [D_Ad]2 [DF]2 [DFA]2 [DFAc]2 | [Ece] [CAc]2 [DAd]- [DAd]2 cd | efec BcBG | %30
 ^F G2 [D^FB]- [DFB]2 !>![DFB]2 | [EG]2 [EGB]2 [D^Fd]2 [DFc]2 | [EG] [EGB]2 [=EGd]- [EGd]2 [EGc]2 | %33
 [CF=A]2 [_EFc]2 [GAe]2 [FAd]2 | [E=A=B] [EAc]2 [GAe]- [GAe]2 [EAc]2 | %35
!<(! [E_A=B]2 [EAc]2 [FA=Bd]2 [EAce]2!<)! | !arpeggio!!^![F=Acf]2 z2 z2 ec | %37
!<(! [EGB]2 [EG=B]2 [EGc]2 [EG^c]2!<)! | !arpeggio!!^![=EGBd]2 z2 z2 B=B | %39
 [_E=Ac]2 [EA=B]2 [EAc]2 [EA^c]2 | [F_Ad]2 [FA^c]2 [FAd] [DFAB]3 |1!f! [Ge]fec BcBG | %42
 ^F G2 !^![DFB]- [DFB]2 !^![DFB]2 :|2 [Ge]GA=A B !>![^Fc]2 B | %44
 [Ge]2 !>![D=FAB]2 !>![EGBe]2"_D.S." z2 |]!p!{F^F} G>^FG>A B G3 | %46
!f!{=AB=B} c"^Clar.  or  Trumpet" e2 c- c>A ^F2 |{=F^F} G>^FG>_A B4 | z2 !^![=A,EG]2 !^![_A,D=F]4 | %49
{F^F} G>^FG>A B G3 |"^Violin"{Bcd} e>=ef>^f g !courtesy!_e'2 B |{=B} c>=Bc>d e _B2 A | %52
 GEFE- E2 z2 |{F^F} G>FG>A c G3 | z8 | [EAc]2 [EA_c]2 [EB]4 | z2 ((([=A,EG]2 [_A,DF]4))) | %57
{F^F} G>FG>A B G3 | z8 |{=B} c>=Bc>d e>_B c>A | [B,EG] [A,DF]2 [G,E]- [G,E]2 !>!B2 || %61
!<(! [EA=B]2 [EAc]2 [FA=Bd]2 [EAce]2!<)! | !^![F=Acf]2 z2 z2 ec | %63
!<(! [EGB]2 [EG=B]2 [EGc]2 [EG^c]2!<)! | !arpeggio!!^![=EGBd]2 z2 z2 B=B | %65
 [_E=Ac]2 [EA=B]2 [EAc]2 [EA^c]2 | [F_Ad]2 [FA^c]2 [FAd] [CFAB]3 | [Ge]GA=A B !>![^Fc]2 B | %68
 [Ge]2 !>![D=FAB]2 !>![EGBe]2 |] %69
V:3
 =E2 | x8 | x8 | x8 | x8 |: x8 | x8 :| x8 | x8 | x8 | x8 | x8 | x8 | x8 | E2 (E2 C2 D2) | x8 | x8 | %17
 [EG]4 x4 | z ABA B A3 | [D=A]3 z x4 | [CG]3 z x4 | x8 | D2 (([^C=E]2 [DF]2)) x2 |: x8 | x8 | x8 | %26
 x8 | x8 | x4 x2 ^F2 | x8 | x8 | x8 | x8 | x8 | x8 | x8 | x6 [E^F]2 | x8 | x6 =E2 | x8 | x8 |1 x8 | %42
 x8 :|2 x8 | x8 |] x8 | x8 | x8 | x8 | x8 | x8 | x8 | x8 | x8 | x8 | x8 | x8 | x8 | x8 | x8 | x8 || %61
 x8 | x6 [E^F]2 | x8 | x6 =E2 | x8 | x8 | x8 | x6 |] %69
V:4
 [G,,G,]2 | [F,,F,]2 [F,=A,]2 [F,,F,]2 [F,A,]2 | [B,,,B,,]2 [_A,B,]2 [B,,,B,,]2 [A,B,]2 | %3
 [E,,E,] z z2 z !>!=A,2 B, | E,2 !>![B,,B,]2 !>![E,,E,]2 z2 |: %5
 [E,,E,]2 [G,B,]2 [^F,,^F,]2 [F,=A,]2 | [=F,,=F,]2 [F,B,]2 [B,,,B,,]2 [F,A,B,]2 :| %7
 [E,,E,]2 [G,B,]2 [^F,,^F,]2 [F,=A,]2 | [=F,,=F,]2 [F,B,]2 [B,,,B,,]2 [F,A,B,]2 | %9
 [E,,E,]2 [G,B,]2 [^F,,^F,]2 [F,=A,]2 | [=F,,=F,]2 [F,B,]2 [B,,,B,,]2 [A,B,]2 | %11
 [G,,G,]2 [B,_D]2 [A,,A,]2 [A,C]2 | [B,,B,]2 [B,_D]2 [C,C]2 [_C,_C]2 | %13
 [B,,B,]2 [G,B,]2 [B,,,B,,]2 [A,B,]2 | [E,,E,]2 (G,2 F,2 B,,2) | %15
 [E,,E,]2 [G,B,]2 [^F,,^F,]2 [F,=A,]2 | [=F,,=F,]2 [F,B,]2 [B,,,B,,]B,,=C,D, | %17
 [E,,E,]2 [G,B,]2 [_D,,_D,]2 [G,B,]2 | [C,,C,]2 [E,A,]2 [A,,,A,,]2 [E,A,C]2 | %19
 [^F,,^F,]2 [F,=A,C]2 [G,,G,]2 [=F,,=F,]2 | [=E,,=E,]2 [E,G,B,]2 [F,,F,]2 [F,_A,]2 | %21
 [C,,C,]2 [F,=A,]2 F,,2 [F,A,]2 | B,2 (!>!G,2 _A,2) !>![B,,,B,,]2 |: %23
 [E,,E,]2 [G,B,]2 [B,,,B,,]2 [A,B,]2 | [E,,E,]2 [G,B,]2 [C,,C,]2 [G,B,]2 | %25
 [F,,F,]2 [F,=A,]2 [C,,C,]2 [F,A,]2 | [F,,F,]2 [F,=A,]2 [C,,C,]2 [F,A,]2 | %27
 [F,,F,]2 [_A,B,]2 [B,,,B,,]2 [A,B,]2 | [F,,F,]2 [A,B,]2 [B,,,B,,]2 [A,B,]2 | %29
 !arpeggio![E,,B,,G,]2 z2 z4 | z2 z A,- A,2 !>![B,,,B,,]2 | [E,,E,]2 [G,B,]2 [B,,,B,,]2 [A,B,]2 | %32
 [E,,E,]2 [G,B,]2 [C,,C,]2 [G,B,]2 | [F,,F,]2 [F,=A,]2 [C,,C,]2 [F,A,]2 | %34
 [F,,F,]2 [F,=A,]2 [C,,C,]2 [F,A,]2 | [_A,,_A,]2 [E,A,C]2 [A,,A,]2 [E,A,C]2 | %36
 !arpeggio!!^![F,,C,=A,]2 z2 z2 [=A,,A,]2 | [B,,B,]2 [E,G,]2 [E,,E,]2 [E,G,B,]2 | %38
 !arpeggio!!^![C,,G,,=E,]2 z2 z2 [G,,G,]2 | [F,,F,]2 [F,=A,]2 [F,,F,]2 [F,A,]2 | %40
 [B,,,B,,]2 [_A,B,]2 [B,,,B,,]2 [A,B,]2 |1"_PATTER CHORUS ON BACK PAGE (OVER)" [E,,E,] z z2 z4 | %42
 z2 z !^!A,- A,2 !^![B,,,B,,]2 :|2 [E,,E,] z z2 z !>!=A,2 B, | E,2 !>![B,,B,]2 !>![E,,E,]2 z2 |] %45
 [E,,B,,]2 z2 z2 !^![E,,B,,]2 | z8 | [E,,B,,]2 z2 z2 !^![E,,B,,]2 | z2 (C,_C, B,,2) !^!B,,,2 | %49
 [E,,B,,]2 z2 z2 !^![E,,B,,]2 | z8 | [A,CE]2 z2 [G,!courtesy!_B,E]2 z2 | %52
 [C,=A,]2 [_B,,_A,]2 [E,G,]2 !^!E,,2 | .[E,,B,,]2 z2 z2 !^![E,,B,,]2 | %54
"^Tromb.  or  Saxophone"{G,^G,} (=A,4 _A,4) | (!>!E,2 !>!F,2 !>!G,4) | %56
 !^!F,,2 (C,_C, B,,2) !^!B,,,2 | [E,,B,,]2 z2 z2 !^![E,,B,,]2 | %58
"^Drum"{B,,,C,,D,,} E,,>D,,E,,>D,, .E,,.E,, z2 | [A,CE]2 [A,CE]2 [G,!courtesy!_B,E]2 [F,A,E]2 | %60
 B,,2 [B,,,B,,]2 [E,,E,]2 z2 || [A,,A,]2 [E,A,C]2 [A,,A,]2 [E,A,C]2 | %62
 !^![F,,C,=A,]2 z2 z2 [=A,,A,]2 | [B,,B,]2 [E,G,]2 [E,,E,]2 [E,G,B,]2 | %64
 !arpeggio!!^![C,,G,,=E,]2 z2 z2 [G,,G,]2 | [F,,F,]2 [F,=A,]2 [F,,F,]2 [F,A,]2 | %66
 [B,,,B,,]2 [_A,B,]2 [B,,,B,,]2 [A,B,]2 | [E,,E,] z z2 z !>!=A,2 B, | %68
 E,2 !>![B,,B,]2 !>![E,,E,]2 |] %69
V:5
 x2 | x8 | x8 | x8 | x8 |: x8 | x8 :| x8 | x8 | x8 | x8 | x8 | x8 | x8 | x8 | x8 | x8 | x8 | x8 | %19
 x8 | x8 | x8 | B,,6 x2 |: x8 | x8 | x8 | x8 | x8 | x8 | x8 | x8 | x8 | x8 | x8 | x8 | x8 | x8 | %37
 x8 | x8 | x8 | x8 |1 x8 | x8 :|2 x8 | x8 |] x8 | x8 | x8 | x8 | x8 | x8 | x8 | x8 | x8 | x8 | %55
 A,,4 E,4 | x8 | x8 | x8 | x8 | x8 || x8 | x8 | x8 | x8 | x8 | x8 | x8 | x6 |] %69

